X:1
T:Olive’s Brow, LM
T:Olive’s Brow, LM
T:William  Batchelder Bradbury, 1853
T:Public Domain Courtesy of the Cyber Hymnal™
C:William  Batchelder Bradbury, 1853
Z:Public Domain
Z:Courtesy of the Cyber Hymnal™
%%score ( 1 2 ) ( 3 4 )
L:1/8
M:4/4
K:Ab
V:1 treble 
V:2 treble 
V:3 bass 
V:4 bass 
V:1
 [CE]4 | [CE]2 [CE]2 [DF]2 [DF]2 | [CE]4 [B,E]4 | [CE]4 [CA]4 | [CA]2 [CA]2 [EB]2 [Ec]2 | %5
 [FB]4 B4 | [CA]4 [Ec]4 | [EB]2 [EB]2 [EB]2 [EB]2 | [=DB]4 [FA]4 | [EG]4 [EG]4 | %10
 [EA]2 [EA]2 [FA]2 [DF]2 | E4 [DE]4 | [CE]4 |] %13
V:2
 x4 | x8 | x8 | x8 | x8 | x4 (E2 D2) | x8 | x8 | x8 | x8 | x8 | (C2 B,2) x4 | x4 |] %13
V:3
 [A,,A,]4 | [A,,A,]2 [A,,A,]2 [D,A,]2 [D,A,]2 | [E,A,]4 [E,G,]4 | [A,,A,]4 [A,,A,]4 | %4
 [F,A,]2 [F,A,]2 [E,G,]2 [A,,A,]2 | [D,A,]4 [E,G,]4 | [A,,A,]4 [A,,A,]4 | %7
 [E,G,]2 [E,G,]2 [E,G,]2 [E,G,]2 | (F,2 B,2) [=D,B,]4 | [E,B,]4 [D,B,]4 | %10
 [C,A,]2 [C,A,]2 [D,A,]2 [D,A,]2 | (A,2 G,2) [E,B,]4 | [A,,A,]4 |] %13
V:4
 x4 | x8 | x8 | x8 | x8 | x8 | x8 | x8 | B,,4 x4 | x8 | x8 | E,4 x4 | x4 |] %13

